packages/icon/svgs/icon-sort.svg

<svg xmlns="http://www.w3.org/2000/svg" viewBox="0 0 12 12" enable-background="new 0 0 12 12"><path d="M7.6 7.1l-1.6 1.5-1.6-1.5c-.2-.2-.4-.2-.6 0s-.2.5 0 .6l1.9 1.9c.1.1.2.1.3.1s.2 0 .3-.1l1.9-1.9c.2-.2.2-.5 0-.6s-.4-.2-.6 0zM4.4 4.9l1.6-1.5 1.6 1.6.3.1s.2 0 .3-.1c.2-.2.2-.5 0-.6l-1.9-2c-.1-.1-.2-.1-.3-.1s-.2 0-.3.1l-1.9 1.9c-.2.2-.2.5 0 .6s.4.2.6 0z"/></svg>

<?xml version="1.0" encoding="utf-8"?>
<!-- Generator: Adobe Illustrator 18.0.0, SVG Export Plug-In . SVG Version: 6.00 Build 0)  -->
<!DOCTYPE svg PUBLIC "-//W3C//DTD SVG 1.1//EN" "http://www.w3.org/Graphics/SVG/1.1/DTD/svg11.dtd">
<svg version="1.1" id="Layer_1" xmlns="http://www.w3.org/2000/svg" xmlns:xlink="http://www.w3.org/1999/xlink" x="0px" y="0px"
	 viewBox="0 0 12 12" enable-background="new 0 0 12 12" xml:space="preserve">
<g>
	<path d="M7.6,7.1L6,8.6L4.4,7.1C4.2,6.9,4,6.9,3.8,7.1s-0.2,0.5,0,0.6l1.9,1.9C5.8,9.7,5.9,9.7,6,9.7s0.2,0,0.3-0.1l1.9-1.9
		c0.2-0.2,0.2-0.5,0-0.6S7.8,6.9,7.6,7.1z"/>
	<path d="M4.4,4.9L6,3.4l1.6,1.6C7.7,5,7.8,5.1,7.9,5.1s0.2,0,0.3-0.1c0.2-0.2,0.2-0.5,0-0.6L6.3,2.4C6.2,2.3,6.1,2.3,6,2.3
		s-0.2,0-0.3,0.1L3.8,4.3c-0.2,0.2-0.2,0.5,0,0.6S4.2,5.1,4.4,4.9z"/>
</g>
</svg>
